X:686
L:1/8
Q:3/4=72
M:6/4
K:D
 A2 | d3 e f2 d2 f2 d2 | A3 Bcd e2 c2 A2 | d3 e f2 d2 f2 e2 | d3 efg a2 f2 d2 | g2 f2 e2 f3 e d2 | 
 A3 Bcd e2 c2 A2 | a6 f6 | d3 efg a2 f2 d2 | a6 f6 | A3 Bcd e2 c2 A2 | a6 f6 | d3 efg agfgaf | 
 bagabg agagaf | A3 Bcd edcBcA | d3 e f2 d2 f2 e2 | d3 efg agfe d2 |]

